assets/svg/metaLegends.svg

<svg viewBox="0 0 81 28" fill="none" xmlns="http://www.w3.org/2000/svg">
<path d="M22.1783 14.4433H10.8658V17.1078H22.1783V14.4433Z" fill="currentColor"/>
<path d="M38.0847 21.6315H45.5826V18.9655H38.0847L35.3935 18.9493V26.9915H46.7105V24.3255H38.0847V21.6315Z" fill="currentColor"/>
<path d="M47.673 26.9753H50.3642V21.4206L47.673 18.756V26.9753Z" fill="currentColor"/>
<path d="M77.0947 19.3814H73.4566C73.156 19.3857 72.8656 19.2733 72.6476 19.0683C72.4295 18.8632 72.3011 18.5818 72.2899 18.2842C72.2786 17.9866 72.3853 17.6964 72.5872 17.4757C72.7891 17.255 73.0702 17.1214 73.3702 17.1033C73.399 17.1019 73.4278 17.1019 73.4566 17.1033H77.6679C77.871 17.1722 78.0474 17.3022 78.1724 17.4751C78.2974 17.648 78.3649 17.8553 78.3654 18.068H81C81.0011 17.1795 80.673 16.3215 80.0778 15.6569C79.4827 14.9923 78.6619 14.5672 77.7714 14.4624H72.9973C72.403 14.5356 71.8341 14.7447 71.3355 15.0733C70.8369 15.4019 70.4223 15.8408 70.1245 16.3555C69.9758 16.6137 69.8586 16.8885 69.7754 17.1741C69.2447 16.4032 68.5465 15.7599 67.7319 15.2914C66.9174 14.8229 66.0072 14.5411 65.0683 14.4668H65.0355L57.9373 14.4573H55.2655V14.4809H55.2477V21.192L48.4569 14.4668H28.407C26.7119 14.4593 25.0808 15.1079 23.8614 16.2744C23.0812 17.0122 22.5066 17.9371 22.1932 18.9596H13.551L10.8613 18.9434V26.9819H22.1768V24.3248H13.551V21.6315H19.1075L19.1186 21.6558H22.0048C22.2091 23.0069 22.8613 24.2522 23.8585 25.1957C25.0784 26.3631 26.7109 27.0113 28.407 27.0018H33.9456V18.9891H25.0585C25.3493 18.4896 25.7516 18.0626 26.2345 17.7408C26.7175 17.4189 27.2683 17.2107 27.8449 17.1321H33.9166V17.1078H47.3164L50.3686 20.1263L57.3046 26.9996H57.9537V17.1129H64.7281C64.9162 17.122 65.1033 17.1452 65.2879 17.1823C66.1154 17.3509 66.8591 17.7965 67.3942 18.4442C67.9292 19.0919 68.223 19.9022 68.2262 20.7391C68.2259 20.9902 68.201 21.2407 68.1517 21.4869C67.9972 22.2075 67.6255 22.8646 67.0858 23.3713C66.5461 23.878 65.8639 24.2105 65.1293 24.3248H62.0749V18.9714H59.3852V26.9996H65.3132C66.6928 26.8309 67.9785 26.2188 68.9735 25.2571C69.9685 24.2954 70.6178 23.0372 70.822 21.675C70.8511 21.4774 70.8674 21.276 70.8786 21.0754C71.5849 21.7095 72.5035 22.0613 73.4566 22.0629H77.0947C77.3925 22.0735 77.6746 22.1982 77.8816 22.4108C78.0885 22.6233 78.2042 22.907 78.2042 23.2023C78.2042 23.4976 78.0885 23.7814 77.8816 23.9939C77.6746 24.2064 77.3925 24.3311 77.0947 24.3417H75.3936C75.1905 24.2728 75.0141 24.1428 74.8889 23.9699C74.7638 23.7971 74.6961 23.5899 74.6953 23.3771H72.0608C72.0618 24.3397 72.4487 25.2625 73.1363 25.9425C73.824 26.6225 74.7562 27.0041 75.7279 27.0033H77.0947C78.1041 26.9894 79.0674 26.5824 79.7762 25.8703C80.4851 25.1582 80.8825 24.1984 80.8825 23.1983C80.8825 22.1982 80.4851 21.2383 79.7762 20.5262C79.0674 19.8142 78.1041 19.4072 77.0947 19.3932V19.3814ZM31.2478 21.6558V24.3248H27.839C27.1121 24.2285 26.4291 23.925 25.8732 23.4511C25.3173 22.9772 24.9124 22.3535 24.7079 21.6558H31.2478Z" fill="currentColor"/>
<path d="M23.2629 7.38848L24.3066 8.42465L25.829 9.9328L26.5437 9.22703L26.6665 9.10313L28.3288 7.45633V13.1615H30.5919V2.00042L30.0969 2.53584L25.829 6.76309L21.5634 2.53584H21.5418L20.9998 2.00042V13.1615H23.2629V7.38848Z" fill="currentColor"/>
<path d="M40.2793 8.65621V6.41426H33.9746L31.7115 6.39951V13.1615H43.4282V10.9218H33.9746V8.65621H40.2793Z" fill="currentColor"/>
<path d="M46.977 4.85301H50.7185V2.61254H41.2269V2.61106H31.7115V4.85301H44.7139V4.85449H46.977V4.85301Z" fill="currentColor"/>
<path d="M46.7335 5.74537H44.4705V13.1637H46.7335V5.74537Z" fill="currentColor"/>
<path d="M57.9306 13.1615V-0.000366211L50.3582 7.50279L47.6663 10.1658V11.7566L47.6686 12.9528V13.1615H48.451L55.241 6.43491V13.1615H57.9306Z" fill="currentColor"/>
<path d="M2.68965 14.6107H0V26.9915H10.0804V24.3255H2.68965V14.6107Z" fill="currentColor"/>
</svg>

<svg width="81" height="27" viewBox="0 0 81 27" fill="none" xmlns="http://www.w3.org/2000/svg">
  <g clip-path="url(#prefix__clip0_722_92)" fill="var(--color-white)">
    <path
      d="M22.178 14.466v-.023H10.865v2.665h11.313v-2.642zM38.084 21.631h7.498v-2.666h-7.498l-2.691-.016v8.042h11.316v-2.666h-8.625v-2.694zM47.674 26.975h2.691V21.42l-2.691-2.664v8.22z" />
    <path
      d="M77.095 19.381h-3.638c-.301.005-.591-.108-.81-.313a1.135 1.135 0 01-.06-1.592 1.155 1.155 0 01.87-.373h4.21c.204.07.38.2.505.372.125.173.193.38.193.593H81a3.607 3.607 0 00-.922-2.411 3.672 3.672 0 00-2.307-1.195h-4.774a3.882 3.882 0 00-1.662.611 3.839 3.839 0 00-1.21 1.282 3.737 3.737 0 00-.35.819 6.281 6.281 0 00-2.043-1.883 6.348 6.348 0 00-2.664-.824h-.032l-7.099-.01h-2.671v.024h-.018v6.71l-6.791-6.724h-20.05a6.535 6.535 0 00-4.546 1.807 6.195 6.195 0 00-1.668 2.685h-8.642l-2.69-.016v8.039h11.316v-2.657H13.55V21.63h5.557l.01.025h2.887a6.137 6.137 0 001.854 3.54 6.527 6.527 0 004.548 1.806h5.539v-8.013h-8.887c.29-.5.693-.927 1.175-1.248a3.839 3.839 0 011.61-.609h6.072v-.024h13.4l3.053 3.018 1.84 1.825 3.19 3.158L57.304 27h.65v-9.886h6.774a3.685 3.685 0 012.666 1.331 3.624 3.624 0 01.758 3.043 3.629 3.629 0 01-1.066 1.884c-.54.507-1.222.84-1.957.954h-3.054V18.97h-2.69V27h5.928a6.381 6.381 0 003.66-1.743 6.277 6.277 0 001.849-3.582c.03-.198.045-.4.057-.6a3.87 3.87 0 002.578.988h3.638c.297.01.58.135.787.348a1.135 1.135 0 010 1.583c-.207.212-.49.337-.787.348h-1.701a1.032 1.032 0 01-.505-.372 1.017 1.017 0 01-.194-.593h-2.634a3.613 3.613 0 001.075 2.565 3.682 3.682 0 002.592 1.061h1.367a3.859 3.859 0 002.681-1.133 3.787 3.787 0 001.106-2.672c0-1-.397-1.96-1.106-2.672a3.86 3.86 0 00-2.681-1.133v-.012zm-45.847 2.275v2.669h-3.409a3.8 3.8 0 01-1.966-.874 3.744 3.744 0 01-1.165-1.795h6.54zM23.263 7.388l1.044 1.036 1.522 1.509.3-.298.415-.408.123-.124.463-.459 1.199-1.188v5.705h2.263V2.001l-.495.535-4.268 4.227-2.115-2.095-2.15-2.132h-.022L21 2V13.161h2.263V7.388zM40.279 8.656V6.414h-6.305L31.711 6.4v6.763h11.717v-2.24h-9.454V8.656h6.305zM46.976 4.853h3.742v-2.24h-9.492V2.61h-9.515v2.242h13.003v.001h2.262v-.001zM46.734 5.745H44.47v7.419h2.263V5.745zM55.258 13.161h2.672V0l-2.542 2.52-3.19 3.157-1.84 1.826-2.692 2.663v1.591l.002 1.196v.208h.783l6.79-6.726v6.726h.017zM2.69 14.61H0v12.381h10.08v-2.666H2.69v-9.714z" />
  </g>
  <defs>
    <clipPath id="prefix__clip0_722_92">
      <path fill="var(--color-white)" d="M0 0h81v27H0z" />
    </clipPath>
  </defs>
</svg>
